X:137
T: WOLLN DIE WEISEN FRAUEN FRAGEN
N: K2225
O: Europa, Mitteleuropa, Deutschland, Kassel
R: Kinder - Lied, Reigen, Tanz - Spiel, Brautwerbung
M: 2/4
L: 1/16
K: C
 | c2c2c2c2 | e2c2c2c2 |
c2c2c2c2 | e2c2c2c2 |
c2c2e4 | c2c2e4 |
G3FE2D2 | D4C4

